!! 00000] TT[WS
!!!OTL: Xiang mama
!!!ARE: Asia, China,ÿShanxi Ningwu
!! Ethnic Group: Han
!! WI, 210
!!!SCT: J0248
!!!YEM: Copyright 1995, estate of Helmut Schaffrath.
**kern
*ICvox
*Ivox
*M2/4
*k[f#]
*G:
{8dd
8dd
8dd
16dd
16ee
=1
8ee
16dd
16cc
4dd
=2
8b
8g
8a
16b
16a
=3
8g
16f#
16e
4d}
=4
{8b
8b
8dd
16dd
16b
=5
8a
16g
16a
8dd
8b
=6
8e
16d
16e
8f#
16f#
16e
=7
2d}
==
!!!AGN: Xiaodiao. Fengsuge, Jiating shenghuo
!!!ONB: ESAC (Essen Associative Code) Database: CHINA
!!!AMT: simple duple
!!!AIN: vox
!!!EED: Helmut Schaffrath
!!!EEV: 1.0
*-
